X:76
T:Devil of Dublin
C:Liberty F&D Corps
M:6/8
L:1/8
K:Emin
(E/F/|G2)B BAB|G2E E2G|F2A AGA|F2D DEF|G2B BAB|def gfe|dcB BAB|G2E E2::
e|e2B BAB|d2B B2g|d2B BAB|G2E E2e|e2B BAB|def gfe|dcB BAB|G2E E2:|
